X:22
T:zard mâidjeh
T:setâr 62
L:1/8
Q:1/4=120
M:2/4
K:F
B,2 CD | D2-DF | "repet" | DC/2C/2CD | "repet"|"repet"| B,C B,D | DC/2C/2 CD |"repet" |
CB,B, B,C | B,+b+A/2A/2 A+=+B, | +b+A,+=+G,G, G,+b+A,+=+ | G,2 z2 :|




